desafios/travelgram/assets/icons/MapPin.svg

<svg fill="none" height="24" viewBox="0 0 24 24" width="24" xmlns="http://www.w3.org/2000/svg"><g fill="#ef5f4c"><path d="m12 2.25c-1.9891 0-3.89678.79018-5.3033 2.1967s-2.1967 3.31418-2.1967 5.3033c0 6.75 7.5 12 7.5 12s7.5-5.25 7.5-12c0-1.98912-.7902-3.89678-2.1967-5.3033s-3.3142-2.1967-5.3033-2.1967zm0 10.5c-.5933 0-1.1734-.1759-1.6667-.5056-.49336-.3296-.87788-.7982-1.10494-1.3463-.22706-.5482-.28647-1.15143-.17072-1.73337.11576-.58194.40148-1.11649.82104-1.53605.41952-.41956.95412-.70528 1.53602-.82104.582-.11575 1.1852-.05634 1.7334.17072.5481.22706 1.0167.61158 1.3463 1.10493.3297.49335.5056 1.07337.5056 1.66671 0 .7956-.3161 1.5587-.8787 2.1213s-1.3257.8787-2.1213.8787z" opacity=".2"/><path d="m12 6c-.7417 0-1.4667.21993-2.08339.63199-.61668.41205-1.09733.99772-1.38116 1.68295-.28383.68522-.35809 1.43922-.2134 2.16666.1447.7274.50185 1.3956 1.0263 1.9201.52445.5244 1.19265.8816 1.92005 1.0262.7274.1447 1.4814.0705 2.1667-.2134.6852-.2838 1.2709-.7644 1.6829-1.3811.4121-.6167.632-1.3417.632-2.0834 0-.99456-.3951-1.94839-1.0983-2.65165-.7033-.70326-1.6571-1.09835-2.6517-1.09835zm0 6c-.445 0-.88-.132-1.25-.3792s-.6584-.5986-.82873-1.0098c-.1703-.4111-.21485-.8635-.12804-1.29995.08682-.43646.30107-.83737.61577-1.15204s.7156-.52896 1.152-.61578c.4365-.08681.8889-.04226 1.3.12804.4112.1703.7626.45869 1.0098.8287s.3792.80502.3792 1.25003c0 .5967-.2371 1.169-.659 1.591-.422.4219-.9943.659-1.591.659zm0-10.5c-2.18727.00248-4.28425.87247-5.83089 2.41911s-2.41663 3.64362-2.41911 5.83089c0 2.9438 1.36031 6.0638 3.9375 9.0234 1.15802 1.3374 2.4614 2.5417 3.8859 3.5907.1261.0883.2764.1357.4303.1357.154 0 .3043-.0474.4304-.1357 1.4219-1.0494 2.7227-2.2537 3.8784-3.5907 2.5734-2.9596 3.9375-6.0796 3.9375-9.0234-.0025-2.18727-.8725-4.28425-2.4191-5.83089s-3.6436-2.41663-5.8309-2.41911zm0 19.3125c-1.5497-1.2187-6.75-5.6953-6.75-11.0625 0-1.79021.71116-3.5071 1.97703-4.77297s2.98277-1.97703 4.77297-1.97703 3.5071.71116 4.773 1.97703c1.2658 1.26587 1.977 2.98276 1.977 4.77297 0 5.3653-5.2003 9.8438-6.75 11.0625z"/></g></svg>

<svg width="24" height="24" viewBox="0 0 24 24" fill="none" xmlns="http://www.w3.org/2000/svg">
<path opacity="0.2" d="M12 2.25C10.0109 2.25 8.10322 3.04018 6.6967 4.4467C5.29018 5.85322 4.5 7.76088 4.5 9.75C4.5 16.5 12 21.75 12 21.75C12 21.75 19.5 16.5 19.5 9.75C19.5 7.76088 18.7098 5.85322 17.3033 4.4467C15.8968 3.04018 13.9891 2.25 12 2.25ZM12 12.75C11.4067 12.75 10.8266 12.5741 10.3333 12.2444C9.83994 11.9148 9.45542 11.4462 9.22836 10.8981C9.0013 10.3499 8.94189 9.74667 9.05764 9.16473C9.1734 8.58279 9.45912 8.04824 9.87868 7.62868C10.2982 7.20912 10.8328 6.9234 11.4147 6.80764C11.9967 6.69189 12.5999 6.7513 13.1481 6.97836C13.6962 7.20542 14.1648 7.58994 14.4944 8.08329C14.8241 8.57664 15 9.15666 15 9.75C15 10.5456 14.6839 11.3087 14.1213 11.8713C13.5587 12.4339 12.7956 12.75 12 12.75Z" fill="#EF5F4C"/>
<path d="M12 6C11.2583 6 10.5333 6.21993 9.91661 6.63199C9.29993 7.04404 8.81928 7.62971 8.53545 8.31494C8.25162 9.00016 8.17736 9.75416 8.32205 10.4816C8.46675 11.209 8.8239 11.8772 9.34835 12.4017C9.8728 12.9261 10.541 13.2833 11.2684 13.4279C11.9958 13.5726 12.7498 13.4984 13.4351 13.2145C14.1203 12.9307 14.706 12.4501 15.118 11.8334C15.5301 11.2167 15.75 10.4917 15.75 9.75C15.75 8.75544 15.3549 7.80161 14.6517 7.09835C13.9484 6.39509 12.9946 6 12 6ZM12 12C11.555 12 11.12 11.868 10.75 11.6208C10.38 11.3736 10.0916 11.0222 9.92127 10.611C9.75097 10.1999 9.70642 9.7475 9.79323 9.31105C9.88005 8.87459 10.0943 8.47368 10.409 8.15901C10.7237 7.84434 11.1246 7.63005 11.561 7.54323C11.9975 7.45642 12.4499 7.50097 12.861 7.67127C13.2722 7.84157 13.6236 8.12996 13.8708 8.49997C14.118 8.86998 14.25 9.30499 14.25 9.75C14.25 10.3467 14.0129 10.919 13.591 11.341C13.169 11.7629 12.5967 12 12 12ZM12 1.5C9.81273 1.50248 7.71575 2.37247 6.16911 3.91911C4.62247 5.46575 3.75248 7.56273 3.75 9.75C3.75 12.6938 5.11031 15.8138 7.6875 18.7734C8.84552 20.1108 10.1489 21.3151 11.5734 22.3641C11.6995 22.4524 11.8498 22.4998 12.0037 22.4998C12.1577 22.4998 12.308 22.4524 12.4341 22.3641C13.856 21.3147 15.1568 20.1104 16.3125 18.7734C18.8859 15.8138 20.25 12.6938 20.25 9.75C20.2475 7.56273 19.3775 5.46575 17.8309 3.91911C16.2843 2.37247 14.1873 1.50248 12 1.5ZM12 20.8125C10.4503 19.5938 5.25 15.1172 5.25 9.75C5.25 7.95979 5.96116 6.2429 7.22703 4.97703C8.4929 3.71116 10.2098 3 12 3C13.7902 3 15.5071 3.71116 16.773 4.97703C18.0388 6.2429 18.75 7.95979 18.75 9.75C18.75 15.1153 13.5497 19.5938 12 20.8125Z" fill="#EF5F4C"/>
</svg>
